icons/svg/skimap/arrow_2triangles_black.svg

<?xml version="1.0" encoding="UTF-8" standalone="no"?>
<svg
   xmlns:dc="http://purl.org/dc/elements/1.1/"
   xmlns:cc="http://creativecommons.org/ns#"
   xmlns:rdf="http://www.w3.org/1999/02/22-rdf-syntax-ns#"
   xmlns:svg="http://www.w3.org/2000/svg"
   xmlns="http://www.w3.org/2000/svg"
   xmlns:sodipodi="http://sodipodi.sourceforge.net/DTD/sodipodi-0.dtd"
   xmlns:inkscape="http://www.inkscape.org/namespaces/inkscape"
   width="1060"
   height="1060"
   id="svg2"
   version="1.1"
   inkscape:version="0.48.4 r9939"
   sodipodi:docname="arrow_triangle_black.svg">
  <defs
     id="defs13" />
  <sodipodi:namedview
     pagecolor="#ffffff"
     bordercolor="#666666"
     borderopacity="1"
     objecttolerance="10"
     gridtolerance="10"
     guidetolerance="10"
     inkscape:pageopacity="0"
     inkscape:pageshadow="2"
     inkscape:window-width="1324"
     inkscape:window-height="739"
     id="namedview11"
     showgrid="false"
     inkscape:zoom="0.2877193"
     inkscape:cx="133.7114"
     inkscape:cy="500.64194"
     inkscape:window-x="42"
     inkscape:window-y="1024"
     inkscape:window-maximized="1"
     inkscape:current-layer="svg2">
    <inkscape:grid
       type="xygrid"
       id="grid3751"
       empspacing="5"
       visible="true"
       enabled="true"
       snapvisiblegridlinesonly="true" />
  </sodipodi:namedview>
  <metadata
     id="metadata2975">image/svg+xmlen<rdf:RDF>
  <cc:Work
     rdf:about="">
    <dc:format>image/svg+xml</dc:format>
    <dc:type
       rdf:resource="http://purl.org/dc/dcmitype/StillImage" />
    <dc:title></dc:title>
  </cc:Work>
</rdf:RDF>
</metadata>
  <path
     style="color:#000000;fill:#fefefe;fill-opacity:1;fill-rule:nonzero;stroke:none;stroke-width:30.54599953;marker:none;visibility:visible;display:inline;overflow:visible;enable-background:accumulate"
     d="m 529.93727,47.901093 149.47241,413.011367 -298.81936,0 z"
     id="rect2989-5"
     inkscape:connector-curvature="0"
     sodipodi:nodetypes="cccc" />
  <path
     style="color:#000000;fill:#000000;fill-opacity:1;fill-rule:nonzero;stroke:none;stroke-width:30.54599953;marker:none;visibility:visible;display:inline;overflow:visible;enable-background:accumulate"
     d="m 529.95197,118.99558 114.45399,316.251 -228.81192,0 z"
     id="rect2989"
     inkscape:connector-curvature="0"
     sodipodi:nodetypes="cccc" />
  <path
     style="color:#000000;fill:#fefefe;fill-opacity:1;fill-rule:nonzero;stroke:none;stroke-width:30.54599953;marker:none;visibility:visible;display:inline;overflow:visible;enable-background:accumulate"
     d="m 529.93727,1012.0989 149.47241,-413.01134 -298.81936,0 z"
     id="rect2989-5-9"
     inkscape:connector-curvature="0"
     sodipodi:nodetypes="cccc" />
  <path
     style="color:#000000;fill:#000000;fill-opacity:1;fill-rule:nonzero;stroke:none;stroke-width:30.54599953;marker:none;visibility:visible;display:inline;overflow:visible;enable-background:accumulate"
     d="m 529.95197,941.00444 114.45399,-316.251 -228.81192,0 z"
     id="rect2989-6"
     inkscape:connector-curvature="0"
     sodipodi:nodetypes="cccc" />
</svg>

<svg width="1060" height="1060" viewBox="0 0 1060 1060" fill="none" xmlns="http://www.w3.org/2000/svg">
<path d="M529.937 47.9011L679.41 460.912H380.59L529.937 47.9011Z" fill="#FEFEFE"/>
<path d="M529.952 118.996L644.406 435.247H415.594L529.952 118.996Z" fill="black"/>
<path d="M529.937 1012.1L679.41 599.088H380.59L529.937 1012.1Z" fill="#FEFEFE"/>
<path d="M529.952 941.004L644.406 624.753H415.594L529.952 941.004Z" fill="black"/>
</svg>
